X:1
T:Bang Your Frog On The Sofa
C:Will Harmon
M:4/4
L:1/8
R:reel
K:Dmin
|:DFAd c2 GB|AFDF GECE|DCDE FGAc|dcAF G2 FG|
|Adde fedc|dcAF GECE|DFEG FAGB|1 AGEF D2 A,C :|2 Ad^ce defg|
|a2 af dfaf|dfaf gfed|ce (3eee gecd|edef gefg|
|a2 af dfaf|defg afde|fedc ABGB|Ad^ce defg|
|a2 af dfaf|dfaf gfed|ce (3eee gecd|edef gefg|
|af (3fff ge (3eee|fedf edce|fedc AGFA|GECE D2 A,C|

